X:8
T:Dutch Fusiliers
M:C
L:1/8
K:G
%%MIDI channel 1
%%MIDI program 72
%%MIDI transpose 8
%%MIDI grace 1/8
%%MIDI ratio 3 1
D|GBdc B2AG|BA GF G2D2|GB dc B2 AG|BAGF G3:|z|:B2Bc A4|GB dcB4|
d2ef gd ec|B2A2G4|B2Bc A4|GB dc B4|d2ef gdec|Bd AF G4::Bddd ceee|
defd g2g2|Bddd ceee|defd g4::B3c d4|efge e2d2|B3cd2B2|ec AF G2G2|
B3c d4|efge edcB|B3c d2B2|ec AF G4:|
